symbols/web/3g_mobiledata/materialsymbolssharp/3g_mobiledata_wght100grad200_20px.svg

<svg xmlns="http://www.w3.org/2000/svg" height="20" width="20"><path d="M2.625 13.958V12.75h4.229v-2.125H2.667V9.417h4.187V7.25H2.625V6.042h5.437v7.916Zm7.604 0V6.042h7.125V7.25h-5.916v5.5h4.708v-2.167h-2.104V9.375h3.312v4.583Z"/></svg>

<svg xmlns="http://www.w3.org/2000/svg" height="20" width="20"><path d="M2.625 13.958V12.75H6.854V10.625H2.667V9.417H6.854V7.25H2.625V6.042H8.062V13.958ZM10.229 13.958V6.042H17.354V7.25H11.438V12.75H16.146V10.583H14.042V9.375H17.354V13.958Z"/></svg>
